X: 1
T: WADE HAMPTON'S -- HORNPIPE
B: Ryan's Mammoth Collection of Fiddle Tunes
R: hornpipe
M: 2/4
L: 1/16
Z: Contributed 20010907141507 by John Chambers jmchambers:rcn.net
K: Bb
(vf"3"ga \
| "fz"b2)vaug fedc | BABc dBFD | FBAB GBAB | dBed cfga |
| "fz"vb2vag  fedc | BABc dBFD | EGcd ecag | fedc B2 :|
|: (ufe) \
| dDFB dfba | gEGB egbg | f=efg fdBd  | edc=B cf=e_e |
| dDFB dfba | gEGB egbg | f=efg f_edc | Bbfd B2 :|
